files/2/128x128/places/folder-templates.svg

<?xml version="1.0" encoding="UTF-8" standalone="no"?>
<svg
   xmlns:dc="http://purl.org/dc/elements/1.1/"
   xmlns:cc="http://creativecommons.org/ns#"
   xmlns:rdf="http://www.w3.org/1999/02/22-rdf-syntax-ns#"
   xmlns:svg="http://www.w3.org/2000/svg"
   xmlns="http://www.w3.org/2000/svg"
   xmlns:sodipodi="http://sodipodi.sourceforge.net/DTD/sodipodi-0.dtd"
   xmlns:inkscape="http://www.inkscape.org/namespaces/inkscape"
   width="128"
   height="128"
   viewBox="0 0 128 128"
   id="svg3251"
   version="1.1"
   inkscape:version="0.48.4 r9939"
   sodipodi:docname="folder-templates.svg">
  <metadata
     id="metadata3289">
    <rdf:RDF>
      <cc:Work
         rdf:about="">
        <dc:format>image/svg+xml</dc:format>
        <dc:type
           rdf:resource="http://purl.org/dc/dcmitype/StillImage" />
      </cc:Work>
    </rdf:RDF>
  </metadata>
  <defs
     id="defs3287" />
  <sodipodi:namedview
     pagecolor="#ffffff"
     bordercolor="#666666"
     borderopacity="1"
     objecttolerance="10"
     gridtolerance="10"
     guidetolerance="10"
     inkscape:pageopacity="0"
     inkscape:pageshadow="2"
     inkscape:window-width="678"
     inkscape:window-height="480"
     id="namedview3285"
     showgrid="false"
     inkscape:zoom="1.84375"
     inkscape:cx="57.491525"
     inkscape:cy="61.830508"
     inkscape:window-x="0"
     inkscape:window-y="0"
     inkscape:window-maximized="0"
     inkscape:current-layer="svg3251" />
  <path
     inkscape:connector-curvature="0"
     id="path3255"
     d="M 17.38672,102 C 15.55078,101.8125 14,99.968752 14,97.992188 L 14,22.027344 C 14,19.917968 15.785156,18 17.75,18 l 92.5,0 c 1.96484,0 3.75,1.917968 3.75,4.027344 l 0,64.941408 c 0,2.105468 -2.87109,5.132812 -4.83984,5.132812 l -33.85938,-0.0586 0,5.296876 C 75.30078,99.425776 73.656248,102 71.703124,102 L 17.75,102 c -0.117188,0 -0.234376,0 -0.36328,0 z"
     style="fill:#e9a439;stroke:#e9a439;stroke-width:4;stroke-opacity:1;fill-opacity:1" />
  <path
     inkscape:connector-curvature="0"
     id="path3257"
     d="M 6.19922,26 C 3.921876,26.1875 2,28.031248 2,30.007812 L 2,105.97266 C 2,108.08203 4.210936,110 6.652344,110 l 114.695316,0 C 123.78906,110 126,108.08203 126,105.97266 l 0,-64.941412 c 0,-2.105468 -3.5625,-5.132812 -6,-5.132812 l -41.98828,0.0586 0,-5.296876 C 78.01172,28.57422 75.972656,26 73.55078,26 L 6.652344,26 C 6.503908,26 6.359376,26 6.19922,26 z"
     style="fill:#f5c14e;stroke:#e9a439;stroke-width:4;stroke-opacity:1;fill-opacity:1" />
  <path
     style="fill:#d0a444;fill-opacity:1"
     inkscape:connector-curvature="0"
     id="path3261"
     d="m 56,56 0,4 4,0 0,-4 z" />
  <path
     style="fill:#d0a444;fill-opacity:1"
     inkscape:connector-curvature="0"
     id="path3263"
     d="m 72,56 0,4 4,0 0,4 4,0 0,-5.328125 C 80,56 77.34375,56 77.34375,56 z" />
  <path
     style="fill:#d0a444;fill-opacity:1"
     inkscape:connector-curvature="0"
     id="path3265"
     d="m 64,56 0,4 4,0 0,-4 z" />
  <path
     style="fill:#d0a444;fill-opacity:1"
     inkscape:connector-curvature="0"
     id="path3267"
     d="m 44,64 4,0 0,-4 4,0 0,-4 -5.328125,0 C 44,56 44,58.65625 44,58.65625 z" />
  <path
     style="fill:#d0a444;fill-opacity:1"
     inkscape:connector-curvature="0"
     id="path3269"
     d="m 52,92 0,-4 -4,0 0,-4 -4,0 0,5.328125 C 44,92 46.65625,92 46.65625,92 z" />
  <path
     style="fill:#d0a444;fill-opacity:1"
     inkscape:connector-curvature="0"
     id="path3271"
     d="m 68,92 0,-4 -4,0 0,4 z" />
  <path
     style="fill:#d0a444;fill-opacity:1"
     inkscape:connector-curvature="0"
     id="path3273"
     d="m 60,92 0,-4 -4,0 0,4 z" />
  <path
     style="fill:#d0a444;fill-opacity:1"
     inkscape:connector-curvature="0"
     id="path3275"
     d="m 44,80 4,0 0,-4 -4,0 z" />
  <path
     style="fill:#d0a444;fill-opacity:1"
     inkscape:connector-curvature="0"
     id="path3277"
     d="m 44,72 4,0 0,-4 -4,0 z" />
  <path
     style="fill:#d0a444;fill-opacity:1"
     inkscape:connector-curvature="0"
     id="path3279"
     d="m 80,84 -4,0 0,4 -4,0 0,4 5.328125,0 C 80,92 80,89.34375 80,89.34375 z" />
  <path
     style="fill:#d0a444;fill-opacity:1"
     inkscape:connector-curvature="0"
     id="path3281"
     d="m 80,68 -4,0 0,4 4,0 z" />
  <path
     style="fill:#d0a444;fill-opacity:1"
     inkscape:connector-curvature="0"
     id="path3283"
     d="m 80,76 -4,0 0,4 4,0 z" />
</svg>

<svg width="128" xmlns="http://www.w3.org/2000/svg" height="128" viewBox="0 0 128 128" xmlns:xlink="http://www.w3.org/1999/xlink">
<g style="stroke:#e9a439">
<path style="fill:#e9a439" d="M 4.34668 24.5 C 3.887695 24.453125 3.5 23.992188 3.5 23.498047 L 3.5 4.506836 C 3.5 3.979492 3.946289 3.5 4.4375 3.5 L 27.5625 3.5 C 28.053711 3.5 28.5 3.979492 28.5 4.506836 L 28.5 20.742188 C 28.5 21.268555 27.782227 22.025391 27.290039 22.025391 L 18.825195 22.010742 L 18.825195 23.334961 C 18.825195 23.856445 18.414062 24.5 17.925781 24.5 L 4.4375 24.5 C 4.408203 24.5 4.378906 24.5 4.34668 24.5 Z " transform="matrix(4 0 0 4 0 4)"/>
<path style="fill:#f5c14e" d="M 1.549805 5.5 C 0.980469 5.546875 0.5 6.007812 0.5 6.501953 L 0.5 25.493164 C 0.5 26.020508 1.052734 26.5 1.663086 26.5 L 30.336914 26.5 C 30.947266 26.5 31.5 26.020508 31.5 25.493164 L 31.5 9.257812 C 31.5 8.731445 30.609375 7.974609 30 7.974609 L 19.50293 7.989258 L 19.50293 6.665039 C 19.50293 6.143555 18.993164 5.5 18.387695 5.5 L 1.663086 5.5 C 1.625977 5.5 1.589844 5.5 1.549805 5.5 Z " transform="matrix(4 0 0 4 0 4)"/>
</g>
<g style="fill:#e9a439">
<path d="M 56 56 L 56 60 L 60 60 L 60 56 Z "/>
<path d="M 72 56 L 72 60 L 76 60 L 76 64 L 80 64 L 80 58.671875 C 80 56 77.34375 56 77.34375 56 Z "/>
<path d="M 64 56 L 64 60 L 68 60 L 68 56 Z "/>
<path d="M 44 64 L 48 64 L 48 60 L 52 60 L 52 56 L 46.671875 56 C 44 56 44 58.65625 44 58.65625 Z "/>
<path d="M 52 92 L 52 88 L 48 88 L 48 84 L 44 84 L 44 89.328125 C 44 92 46.65625 92 46.65625 92 Z "/>
<path d="M 68 92 L 68 88 L 64 88 L 64 92 Z "/>
<path d="M 60 92 L 60 88 L 56 88 L 56 92 Z "/>
<path d="M 44 80 L 48 80 L 48 76 L 44 76 Z "/>
<path d="M 44 72 L 48 72 L 48 68 L 44 68 Z "/>
<path d="M 80 84 L 76 84 L 76 88 L 72 88 L 72 92 L 77.328125 92 C 80 92 80 89.34375 80 89.34375 Z "/>
<path d="M 80 68 L 76 68 L 76 72 L 80 72 Z "/>
<path d="M 80 76 L 76 76 L 76 80 L 80 80 Z "/>
</g>
</svg>
